X:15231
T:Seven step polka, The
R:Polka
O:Shetland
M:4/4
K:G
G2G2G2G2 | FG AF G2D2 | \
B2B2B2B2 | AB cA B2G2 :|
|:\
e2ed3B | c2c2 B3G | E2A2A3G \
|1 FD EF GA Bd :|2 FD EF G2D2 ||
